assets/companies/light/accenture.svg

<svg width="76" height="20" viewBox="0 0 76 20" fill="none" xmlns="http://www.w3.org/2000/svg">
<path d="M44.2324 5.5814L48.6045 3.95349L44.2324 2.27907V0L51.7208 3.02326V4.88372L44.2324 7.90698V5.5814Z" fill="#B9BBC6"/>
<path d="M2.88372 19.9994C1.30233 19.9994 0 19.2087 0 17.4412V17.3482C0 15.2087 1.86046 14.4645 4.13953 14.4645H5.2093V14.0459C5.2093 13.1622 4.83721 12.6505 3.90698 12.6505C3.06977 12.6505 2.65116 13.1156 2.60465 13.7668H0.27907C0.465116 11.8133 2 10.8831 4.04651 10.8831C6.13953 10.8831 7.67442 11.7668 7.67442 13.9529V19.8133H5.30233V18.7901C4.83721 19.4412 4.04651 19.9994 2.88372 19.9994ZM5.2093 16.9296V16.0924H4.23256C3.02326 16.0924 2.4186 16.418 2.4186 17.2087V17.3017C2.4186 17.9063 2.7907 18.3249 3.62791 18.3249C4.46512 18.2784 5.2093 17.8133 5.2093 16.9296ZM13.2093 19.9994C10.7907 19.9994 9.02326 18.511 9.02326 15.5342V15.3947C9.02326 12.418 10.8837 10.8366 13.2093 10.8366C15.2093 10.8366 16.8372 11.8598 17.0233 14.1389H14.6977C14.5581 13.3017 14.093 12.7435 13.2558 12.7435C12.2326 12.7435 11.4884 13.5808 11.4884 15.3017V15.5808C11.4884 17.3482 12.1395 18.1389 13.2558 18.1389C14.093 18.1389 14.6977 17.5342 14.8372 16.5575H17.0698C16.9302 18.604 15.5814 19.9994 13.2093 19.9994ZM22.3256 19.9994C19.907 19.9994 18.1395 18.511 18.1395 15.5342V15.3947C18.1395 12.418 20 10.8366 22.3256 10.8366C24.3256 10.8366 25.9535 11.8598 26.1395 14.1389H23.814C23.6744 13.3017 23.2093 12.7435 22.3721 12.7435C21.3488 12.7435 20.6047 13.5808 20.6047 15.3017V15.5808C20.6047 17.3482 21.2558 18.1389 22.3721 18.1389C23.2093 18.1389 23.814 17.5342 23.9535 16.5575H26.186C26.0465 18.604 24.6977 19.9994 22.3256 19.9994ZM31.4884 19.9994C28.9767 19.9994 27.2558 18.511 27.2558 15.5808V15.3947C27.2558 12.4645 29.0698 10.8366 31.4419 10.8366C33.6279 10.8366 35.4419 12.0459 35.4419 14.9761V16.0459H29.7209C29.814 17.6273 30.5116 18.2319 31.5349 18.2319C32.4651 18.2319 32.9767 17.7203 33.1628 17.1156H35.4419C35.1628 18.7435 33.7674 19.9994 31.4884 19.9994ZM29.7674 14.418H33.0233C32.9767 13.1156 32.3721 12.5575 31.3953 12.5575C30.6512 12.604 29.9535 13.0226 29.7674 14.418ZM36.9302 11.0691H39.3953V12.3715C39.814 11.5342 40.6977 10.8831 42.0465 10.8831C43.6279 10.8831 44.6977 11.8598 44.6977 13.9529V19.8133H42.2326V14.3249C42.2326 13.3017 41.814 12.8366 40.9302 12.8366C40.093 12.8366 39.3953 13.3482 39.3953 14.4645V19.8133H36.9302V11.0691ZM49.2093 8.41797V11.0691H50.8837V12.8831H49.2093V17.0226C49.2093 17.6738 49.4884 17.9994 50.093 17.9994C50.4651 17.9994 50.6977 17.9529 50.9302 17.8598V19.7668C50.6512 19.8598 50.1395 19.9529 49.5349 19.9529C47.6279 19.9529 46.7442 19.0691 46.7442 17.3017V12.8831H45.7209V11.0691H46.7442V9.44122L49.2093 8.41797ZM60.093 19.8133H57.6744V18.511C57.2558 19.3482 56.4186 19.9994 55.1163 19.9994C53.5349 19.9994 52.3721 19.0226 52.3721 16.9761V11.0691H54.8372V16.6505C54.8372 17.6738 55.2558 18.1389 56.093 18.1389C56.9302 18.1389 57.6279 17.5808 57.6279 16.511V11.0691H60.093V19.8133ZM61.907 11.0691H64.3721V12.697C64.8837 11.5342 65.7209 10.9761 67.0233 10.9761V13.3947C65.3488 13.3947 64.3721 13.9063 64.3721 15.3482V19.8598H61.907V11.0691ZM72 19.9994C69.4884 19.9994 67.7674 18.511 67.7674 15.5808V15.3947C67.7674 12.4645 69.5814 10.8366 71.9535 10.8366C74.1395 10.8366 75.9535 12.0459 75.9535 14.9761V16.0459H70.2791C70.3721 17.6273 71.0698 18.2319 72.093 18.2319C73.0233 18.2319 73.5349 17.7203 73.7209 17.1156H76C75.6279 18.7435 74.2791 19.9994 72 19.9994ZM70.2326 14.418H73.5349C73.4884 13.1156 72.8837 12.5575 71.907 12.5575C71.1628 12.604 70.4651 13.0226 70.2326 14.418Z" fill="#8B8D98"/>
</svg>

<svg xmlns="http://www.w3.org/2000/svg" width="76" height="20" fill="none" viewBox="0 0 76 20"><path fill="#B9BBC6" d="m44.232 5.581 4.373-1.628-4.373-1.674V0l7.489 3.023v1.86l-7.489 3.024z"/><path fill="#8B8D98" d="M2.884 20C1.302 20 0 19.208 0 17.44v-.093c0-2.14 1.86-2.883 4.14-2.883h1.07v-.42c0-.883-.373-1.395-1.303-1.395-.837 0-1.256.466-1.302 1.117H.279C.465 11.813 2 10.883 4.047 10.883c2.093 0 3.627.884 3.627 3.07v5.86H5.302V18.79C4.837 19.441 4.047 20 2.884 20m2.325-3.07v-.838h-.976c-1.21 0-1.814.326-1.814 1.117v.093c0 .604.372 1.023 1.209 1.023.837-.047 1.581-.512 1.581-1.395m8 3.07c-2.418 0-4.186-1.489-4.186-4.466v-.14c0-2.976 1.86-4.557 4.186-4.557 2 0 3.628 1.023 3.814 3.302h-2.325c-.14-.837-.605-1.396-1.442-1.396-1.023 0-1.768.838-1.768 2.559v.279c0 1.767.652 2.558 1.768 2.558.837 0 1.442-.605 1.581-1.581h2.233c-.14 2.046-1.489 3.441-3.86 3.441m9.117 0c-2.419 0-4.186-1.489-4.186-4.466v-.14c0-2.976 1.86-4.557 4.186-4.557 2 0 3.627 1.023 3.814 3.302h-2.326c-.14-.837-.605-1.396-1.442-1.396-1.023 0-1.767.838-1.767 2.559v.279c0 1.767.65 2.558 1.767 2.558.837 0 1.442-.605 1.581-1.581h2.233c-.14 2.046-1.488 3.441-3.86 3.441m9.162 0c-2.511 0-4.232-1.489-4.232-4.42v-.185c0-2.93 1.814-4.558 4.186-4.558 2.186 0 4 1.209 4 4.14v1.069H29.72c.093 1.581.79 2.186 1.814 2.186.93 0 1.442-.512 1.628-1.116h2.279c-.28 1.628-1.675 2.883-3.954 2.883m-1.72-5.582h3.255c-.046-1.302-.65-1.86-1.628-1.86-.744.046-1.442.465-1.628 1.86m7.162-3.349h2.465v1.302c.419-.837 1.303-1.488 2.651-1.488 1.582 0 2.652.977 2.652 3.07v5.86h-2.465v-5.488c0-1.023-.419-1.488-1.303-1.488-.837 0-1.535.511-1.535 1.627v5.35H36.93zm12.28-2.651v2.651h1.674v1.814h-1.675v4.14c0 .65.28.976.884.976.372 0 .605-.046.837-.14v1.908c-.279.093-.79.186-1.395.186-1.907 0-2.79-.884-2.79-2.651V12.88H45.72v-1.81h1.023V9.441zM60.091 19.81h-2.419v-1.302c-.418.837-1.255 1.488-2.558 1.488-1.581 0-2.744-.976-2.744-3.023V11.07h2.465v5.582c0 1.023.419 1.488 1.256 1.488s1.535-.558 1.535-1.628V11.07h2.465zm1.814-8.744h2.465v1.628c.512-1.163 1.349-1.72 2.651-1.72v2.418c-1.674 0-2.65.511-2.65 1.953v4.512h-2.466zM72 20c-2.512 0-4.233-1.488-4.233-4.418v-.186c0-2.93 1.814-4.558 4.187-4.558 2.186 0 4 1.209 4 4.14v1.069h-5.675c.093 1.581.79 2.186 1.814 2.186.93 0 1.442-.512 1.628-1.116H76C75.628 18.745 74.28 20 72 20m-1.767-5.581h3.302c-.047-1.302-.651-1.86-1.628-1.86-.744.046-1.442.465-1.674 1.86"/></svg>
